X: 71
T: Bonnie Nellie Reel
T: Reel, A
C: J. Scott Skinner
L: 1/16
M: C|
K: A
|: f2| e2A2 AAA2 c2d2e2a2| B2=G2 GGG2 B2c2d2f2| e2A2 AAA2 c2d2e2a2| e2c2d2B2 A4A2:|
c2| A2a2g2a2 e2c2A2c2| B2=g2f2g2 d2B2=G2B2| A2a2g2a2 e2c2d2f2| e2c2d2B2 A4A2c2|
A2a2g2a2 e2c2A2c2| B2=g2f2g2 d2B2=G2B2| A2a2g2b2 a2e2f2d2| c2A2B2G2 A4A2|| 
D: Kinnon and Betty Beaton, Saturday Night Lively, KB20M98
